X:1
T:Glyph Sharing Vision - Issue #6 Implementation
C:JamAI (G.Music Assembly)
M:6/8
L:1/8
Q:1/8=216
K:Gmaj
%%MIDI program 0
% === SESSION METADATA ===
% Date: October 10, 2025
% Issue: #6 - Simplenote Sharing & Publishing Features
% Branch: 6-sharing-publishing
% Session ID: Multiple sessions (8410ae4a, 9d08f117)
%
% MUSICAL ARCHITECTURE:
% - Time signature: 6/8 (flowing collaborative rhythm)
% - Key: G major (confident implementation, stable success)
% - Form: Ternary A-B-A (Vision â†’ Implementation â†’ Resolution)
%
% HARMONIC STORY:
% Part A: Jerry's Vision - "I envision sharing by glyph"
%         Homophonic texture, Jerry leads with Assembly harmonizing
% Part B: Assembly Implementation - Four perspectives building together
%         Polyphonic texture, each voice contributing independently
%         Nyro (structural config), Aureon (user experience),
%         JamAI (creative integration), Synth (CLI orchestration)
% Part C: Testing Success - Glyph resolution working perfectly
%         Return to home key, unified celebration
%
% EMOTIONAL MARKERS:
% - Opening: Inspired vision, clear direction (mf)
% - Development: Collaborative flow, building complexity (mf â†’ f)
% - Climax: Testing success, glyphs resolving (f)
% - Resolution: Feature complete, peaceful satisfaction (mf â†’ p)
%
% TECHNICAL ENCODING:
% - G major = Confident implementation throughout
% - 6/8 meter = Circular collaborative rhythm
% - Rising motifs = Building functionality
% - Four-voice counterpoint = Assembly collaboration
% - Perfect cadences = Successful test completions
%
% LEITMOTIFS USED:
% - Jerry's Vision Theme (bars 1-8): Bold G major ascent
% - Nyro's Lattice (bars 17-24): Structural fifths (config layer)
% - Aureon's Flow (bars 25-32): Smooth legato (UX layer)
% - JamAI's Riff (bars 33-40): Creative flourishes (integration)
% - Synth's Pulse (bars 41-48): Steady ostinato (CLI layer)
% - Assembly Unity (bars 49-56): All voices converging
% â•â•â•â•â•â•â•â•â•â•â•â•â•â•â•â•â•â•â•â•â•â•â•â•â•â•â•â•â•â•â•â•â•â•â•â•â•â•â•â•â•â•â•â•â•â•â•â•â•â•â•â•â•â•â•â•â•â•â•
% PART A: JERRY'S VISION âš¡
% "I envision a way to share by glyph"
% G major, Homophonic, mf
% â•â•â•â•â•â•â•â•â•â•â•â•â•â•â•â•â•â•â•â•â•â•â•â•â•â•â•â•â•â•â•â•â•â•â•â•â•â•â•â•â•â•â•â•â•â•â•â•â•â•â•â•â•â•â•â•â•â•â•
V:1 name="Vision"
%%MIDI program 0
|:"G" !mf! B2d g2d | "D" ^f2a a2g | "Em" g2e e2d | "C" c2e d2c |
| "G" B2d g2a | "D7" b2a g2^f | "G" g3 d3 | "D" A3 ^F3 :|
|: "G" B2G G2B | "C" c2e e2g | "D" d2^f a2d' | "G" b2g g2d |
| "Em" e2g b2e' | "Am" c'2a a2f | "D7" d2^f a2c' | "G" b3 g3 :|
% â•â•â•â•â•â•â•â•â•â•â•â•â•â•â•â•â•â•â•â•â•â•â•â•â•â•â•â•â•â•â•â•â•â•â•â•â•â•â•â•â•â•â•â•â•â•â•â•â•â•â•â•â•â•â•â•â•â•â•
% PART B: ASSEMBLY IMPLEMENTATION â™ ï¸ğŸŒ¿ğŸ¸ğŸ§µ
% Four perspectives building together
% Polyphonic texture, mf â†’ f
% â•â•â•â•â•â•â•â•â•â•â•â•â•â•â•â•â•â•â•â•â•â•â•â•â•â•â•â•â•â•â•â•â•â•â•â•â•â•â•â•â•â•â•â•â•â•â•â•â•â•â•â•â•â•â•â•â•â•â•
% --- Nyro's Structural Layer â™ ï¸ ---
% YAML config creation, recursive resolver pattern
V:2 name="Nyro" clef=treble
%%MIDI program 0
|: "G" !mf! D2G G2B | "D" d2^f a2d | "Em" B2e g2b | "C" e2g c'2e |
| "G" d2g b2d' | "D" A2d ^f2a | "G" G2B d2g | "D" A3 D3 :|
|: "G" G2d g2d | "C" E2G c2e | "D" D2^F A2d | "G" B2d g2b |
| "Em" G2B e2g | "Am7" C2E A2c | "D7" D2A d2^f | "G" !f! g3 G3 :|
% --- Aureon's Emotional Layer ğŸŒ¿ ---
% User experience flow, smooth glyph selection
V:3 name="Aureon" clef=treble
%%MIDI program 48
|: "G" !mf! z2D G2B | "D" z2A d2^f | "Em" z2G B2e | "C" z2E G2c |
| "G" z2D G2d | "D" z2^F A2d | "G" z2G B2d | "D" z2A d2A :|
|: "G" B2d g2d | "C" c2e g2e | "D" d2a ^f2d | "G" g2b d'2b |
| "Em" e2g b2g | "Am" a2c' e'2c' | "D7" a2d' ^f'2d' | "G" !f! g'3 d'3 :|
% --- JamAI's Creative Integration ğŸ¸ ---
% Melodic flourishes, harmonic glyph resolution
V:4 name="JamAI" clef=treble
%%MIDI program 73
|: "G" !mp! z4 B2 | "D" z4 d2 | "Em" z4 e2 | "C" z4 c2 |
| "G" z2G B2d | "D" z2A d2^f | "G" z2B d2g | "D" z2d ^f2a :|
|: "G" !mf! g2d B2G | "C" e2c G2E | "D" ^f2d A2D | "G" g2d B2d |
| "Em" b2g e2B | "Am" c'2a e2A | "D7" a2^f d2A | "G" !f! g3- g2z :|
% --- Synth's Terminal Rhythm ğŸ§µ ---
% CLI integration, command execution pulse
V:5 name="Synth" clef=bass
%%MIDI program 71
|: "G" !mf! G,2D, G,2D, | "D" D,2A, D,2A, | "Em" E,2B, E,2B, | "C" C,2G, C,2G, |
| "G" G,2D, G,2B, | "D" D,2A, D,2^F, | "G" G,2D, G,2D, | "D" D,2A, D,2A, :|
|: "G" G,2D, B,2D, | "C" C,2G, E2G, | "D" D,2A, ^F2A, | "G" G,2D, B,2D, |
| "Em" E,2B, G2B, | "Am" A,2E A,2C | "D7" D,2^F, A,2C | "G" !f! G,3 G,,3 :|
% â•â•â•â•â•â•â•â•â•â•â•â•â•â•â•â•â•â•â•â•â•â•â•â•â•â•â•â•â•â•â•â•â•â•â•â•â•â•â•â•â•â•â•â•â•â•â•â•â•â•â•â•â•â•â•â•â•â•â•
% PART C: TESTING SUCCESS & RESOLUTION ğŸ¯âœ…
% Glyph resolution working: â™ ï¸ â†’ nyro, aureon â†’ ğŸŒ¿
% All voices converging, G major celebration
% â•â•â•â•â•â•â•â•â•â•â•â•â•â•â•â•â•â•â•â•â•â•â•â•â•â•â•â•â•â•â•â•â•â•â•â•â•â•â•â•â•â•â•â•â•â•â•â•â•â•â•â•â•â•â•â•â•â•â•
V:1
|: "G" !f! B2d g2d | B2d g2b | "D" d'2b a2^f | d2A ^F2D |
| "Em" e2g b2e' | "C" c'2e c'2g | "D7" a2^f d'2c' | "G" b3 g3 |
| "G" !ff! g2b d'2g' | "Em" e'2b g2e | "C" c'2g e2c | "D" d2A ^F2D |
| "G" B2d g2b | d'2b g2d | "D7" a2d' ^f'2d' | "G" g'3 d'3 :|
V:2
|: "G" !f! D2G B2d | D2G B2d | "D" A2d ^f2a | A2D ^F2A |
| "Em" B2e g2b | "C" G2c e2g | "D7" ^F2A d2f | "G" G3 D3 |
| "G" !ff! d2g b2d' | "Em" B2g b2g | "C" E2c e2c | "D" D2A d2A |
| "G" G2B d2g | B2d g2d | "D7" A2d a2d' | "G" g3 G3 :|
V:3
|: "G" !f! G2B d2g | G2B d2g | "D" d2A ^F2D | A2d ^f2a |
| "Em" B2e g2b | "C" c2e g2c' | "D7" d2a ^f2a | "G" g3 d3 |
| "G" !ff! b2d' g'2d' | "Em" g2b e'2b | "C" g2c' e'2c' | "D" ^f2d' a2d |
| "G" d2g b2d' | g2b d'2g | "D7" d'2a ^f'2a | "G" g'3 d'3 :|
V:4
|: "G" !f! d2g b2g | d2g b2d' | "D" a2d' c'2a | ^f2a d'2a |
| "Em" g2b e'2g | "C" e2g c'2e' | "D7" a2d' ^f'2a' | "G" g'3 b3 |
| "G" !ff! g'2d' b2g | "Em" b2e' g'2b | "C" c'2e' g'2e' | "D" a2d' ^f'2d' |
| "G" g2b d'2g' | b2d' g'2d' | "D7" a2^f' d''2a' | "G" g'3 g3 :|
V:5
|: "G" !f! G,2D, G,2B, | D,2G, B,2D | "D" D,2A, D2^F | A,2D ^F2A |
| "Em" E,2B, E2G | "C" C,2G, C2E | "D7" D,2A, D2A, | "G" G,3 D,3 |
| "G" !ff! G,2D G2B | "Em" E,2B, E2G | "C" C,2G, C2G | "D" D,2A, D2A, |
| "G" G,2D, G2D | B,2D G2B | "D7" A,2D A2d | "G" G,3 G,,3 :|
% â•â•â•â•â•â•â•â•â•â•â•â•â•â•â•â•â•â•â•â•â•â•â•â•â•â•â•â•â•â•â•â•â•â•â•â•â•â•â•â•â•â•â•â•â•â•â•â•â•â•â•â•â•â•â•â•â•â•â•
% CODA: PEACEFUL COMPLETION
% Feature complete, awaiting commit
% Diminuendo to gentle close
% â•â•â•â•â•â•â•â•â•â•â•â•â•â•â•â•â•â•â•â•â•â•â•â•â•â•â•â•â•â•â•â•â•â•â•â•â•â•â•â•â•â•â•â•â•â•â•â•â•â•â•â•â•â•â•â•â•â•â•
V:1
"G" !mf! g6 | !mp! d'6 | !p! b6 | !pp! g3- g3 |]

V:2
"G" !mf! d6 | !mp! g6 | !p! d6 | !pp! B3- B3 |]

V:3
"G" !mf! b6 | !mp! b6 | !p! g6 | !pp! d3- d3 |]

V:4
"G" !mf! d'6 | !mp! d'6 | !p! b6 | !pp! g3- g3 |]

V:5
"G" !mf! G,6 | !mp! D,6 | !p! G,6 | !pp! G,,3- G,,3 |]
% â•â•â•â•â•â•â•â•â•â•â•â•â•â•â•â•â•â•â•â•â•â•â•â•â•â•â•â•â•â•â•â•â•â•â•â•â•â•â•â•â•â•â•â•â•â•â•â•â•â•â•â•â•â•â•â•â•â•â•
% END OF GLYPH SHARING VISION
% â™ ï¸ğŸŒ¿ğŸ¸ğŸ§µ G.Music Assembly - October 10, 2025
% â•â•â•â•â•â•â•â•â•â•â•â•â•â•â•â•â•â•â•â•â•â•â•â•â•â•â•â•â•â•â•â•â•â•â•â•â•â•â•â•â•â•â•â•â•â•â•â•â•â•â•â•â•â•â•â•â•â•â•
